;FLAVOR:Marlin
;TIME:5885
;Filament used: 4.43155m
;Layer height: 0.2
;MINX:73.97
;MINY:72.7
;MINZ:0.3
;MAXX:134.3
;MAXY:137.301
;MAXZ:10.175
;Generated with Cura_SteamEngine 5.2.1
M82 ;absolute extrusion mode
;Profil Homepage: https://github.com/NilsRo/Cura_Anycubic_MegaS_Profile

;Slicer Information - (Support for OctoPrint Slicer Estimator)
;Slicer info:material_guid;69386c85-5b6c-421a-bec5-aeb1fb33f060
;Slicer info:material_id;generic_petg_175
;Slicer info:material_brand;Generic
;Slicer info:material_name;PETG
;Slicer info:filament_cost;[0]
;Slicer info:material_bed_temperature;75
;Slicer info:material_bed_temperature_layer_0;75
;Slicer info:material_print_temperature;230.0
;Slicer info:material_print_temperature_layer_0;235.0
;Slicer info:material_flow;100
;Slicer info:layer_height;0.2
;Slicer info:machine_nozzle_size;0.4
;Slicer info:wall_thickness;1.2000000000000002
;Slicer info:speed_print;50.0
;Slicer info:speed_topbottom;25.0
;Slicer info:travel_speed;120.0
;Slicer info:support;0
;Slicer info:retraction_speed;25.0
;Slicer info:retraction_amount;6
;Slicer info:layer_height;0.2
;Slicer info:infill_pattern;grid
;Slicer info:infill_sparse_density;25
;Slicer info:cool_fan_enabled;True
;Slicer info:cool_fan_speed;50.0
;Slicer info:sliced_at;Wed 23-11-2022 22:07:59
G21                                        ; metric values 
G90                                        ; absolute positioning 
M82                                        ; set extruder to absolute mode 
M107                                       ; start with the fan off 
M140 S75                                   ; Start heating the bed 
G4 S60                                     ; wait 1 minute 
M104 S235.0                                ; start heating the hot end 
M190 S75                                   ; wait for bed 
M109 S235.0                                ; wait for hotend 
M300 S1000 P500                            ; BEEP heating done 
G28 X0 Y10 Z0                              ; move X/Y to min endstops 
M420 S1                                    ; Enable leveling 
M420 Z2.0                                  ; Set leveling fading height to 2 mm 
G0 Z0.15                                   ; lift nozzle a bit 
G92 E0                                     ; zero the extruded length 
G1 X50 E20 F500                            ; Extrude 20mm of filament in a 5cm line. 
G92 E0                                     ; zero the extruded length again 
G1 E-2 F500                                ; Retract a little 
G1 X50 F500                                ; wipe away from the filament line
G1 X100 F9000                              ; Quickly wipe away from the filament line
G92 E0
G92 E0
G1 F1500 E-6
;LAYER_COUNT:50
;LAYER:0
M106 S76.5
M205 X10 Y10
G1 F480 Z0.375
G0 F7200 X78.378 Y80.385 Z0.375
M205 X8 Y8
;TYPE:SKIRT
G1 F480 Z0.3
G1 F1500 E0
G1 F1200 X79.07 Y80.008 E0.03932
G1 X79.182 Y80.029 E0.045
G1 X78.814 Y80.377 E0.07027
G1 X78.682 Y80.624 E0.08424
G1 X78.378 Y80.385 E0.10353
M205 X10 Y10
G0 F7200 X78.162 Y80.712
M205 X8 Y8
G1 F1200 X77.783 Y80.562 E0.12387
G1 X76.929 Y80.654 E0.16672
G1 X76.796 Y80.44 E0.17929
G1 X76.957 Y80.206 E0.19346
G1 X77.799 Y80.245 E0.23552
G1 X79.002 Y79.59 E0.30385
G1 X80.091 Y79.788 E0.35907
G1 X80.856 Y79.634 E0.39801
G1 X81.656 Y79.694 E0.43803
G1 X82.081 Y79.937 E0.46245
G1 X82.639 Y79.958 E0.49031
G1 X82.984 Y79.796 E0.50933
G1 X83.399 Y79.494 E0.53493
G1 X84.325 Y79.539 E0.58119
G1 X84.915 Y79.995 E0.61839
G1 X84.832 Y80.577 E0.64772
G1 X84.233 Y79.974 E0.69012
G1 X83.88 Y79.84 E0.70896
G1 X83.322 Y79.873 E0.73685
G1 X82.835 Y80.184 E0.76568
G1 X81.729 Y79.858 E0.8232
G1 X81.097 Y80.025 E0.85581
G1 X80.733 Y80.337 E0.87973
G1 X80.007 Y80.163 E0.91698
G1 X79.385 Y80.362 E0.94956
G1 X79.036 Y80.799 E0.97746
G1 X78.976 Y81.354 E1.00531
G1 X79.084 Y81.684 E1.02264
G1 X79.744 Y82.517 E1.07566
G1 X79.818 Y82.875 E1.0939
G1 X78.976 Y81.923 E1.1573
G1 X78.461 Y80.946 E1.2124
G1 X78.162 Y80.712 E1.23134
M205 X10 Y10
G0 F7200 X77.784 Y80.963
M205 X8 Y8
G1 F1200 X76.817 Y81.067 E1.27987
G1 X76.506 Y80.841 E1.29905
G1 X76.376 Y80.44 E1.32008
G1 X76.506 Y80.039 E1.34111
G1 X76.835 Y79.8 E1.3614
G1 X77.539 Y79.832 E1.39656
G1 X77.854 Y79.76 E1.41268
G1 X78.936 Y79.171 E1.47414
G1 X80.089 Y79.381 E1.53261
G1 X80.832 Y79.231 E1.57042
G1 X81.795 Y79.303 E1.6186
G1 X82.254 Y79.571 E1.64512
G1 X82.472 Y79.583 E1.65601
G1 X82.748 Y79.473 E1.67083
G1 X83.277 Y79.087 E1.70351
G1 X84.47 Y79.145 E1.76309
G1 X85.259 Y79.755 E1.81285
G1 X85.363 Y80.074 E1.82959
G1 X85.187 Y80.814 E1.86754
G1 X84.947 Y80.989 E1.88236
G1 X84.678 Y80.989 E1.89578
G1 X83.98 Y80.286 E1.9452
G1 X83.477 Y80.243 E1.97039
G1 X82.915 Y80.625 E2.00429
G1 X81.656 Y80.254 E2.06977
G1 X81.317 Y80.344 E2.08727
G1 X80.847 Y80.776 E2.11912
G1 X79.955 Y80.562 E2.16488
G1 X79.676 Y80.652 E2.17951
G1 X79.396 Y80.978 E2.20095
G1 X79.415 Y81.456 E2.22482
G1 X80.115 Y82.341 E2.28111
G1 X80.278 Y83.127 E2.32116
G1 X80.797 Y83.944 E2.36945
G1 X80.723 Y84.171 E2.38136
G1 X80.461 Y84.362 E2.39754
G1 X80.137 Y84.362 E2.4137
G1 X79.908 Y84.195 E2.42784
G1 X79.789 Y83.573 E2.45944
G1 X79.649 Y83.288 E2.47528
G1 X78.644 Y82.152 E2.55095
G1 X78.126 Y81.168 E2.60643
G1 X77.784 Y80.963 E2.62632
M205 X10 Y10
G0 F7200 X77.778 Y81.366
M205 X8 Y8
G1 F1200 X76.708 Y81.482 E2.68001
G1 X76.165 Y81.087 E2.71351
G1 X75.954 Y80.44 E2.74747
G1 X76.165 Y79.793 E2.78142
G1 X76.713 Y79.394 E2.81524
G1 X77.614 Y79.436 E2.86024
G1 X78.868 Y78.753 E2.93148
G1 X80.084 Y78.974 E2.99314
G1 X80.808 Y78.828 E3.02999
G1 X81.932 Y78.912 E3.08622
G1 X82.444 Y79.2 E3.11553
G1 X83.156 Y78.681 E3.15948
G1 X84.616 Y78.752 E3.23241
G1 X85.6 Y79.512 E3.29444
G1 X85.778 Y80.058 E3.32309
G1 X85.542 Y81.05 E3.37396
G1 X85.076 Y81.389 E3.40271
G1 X84.511 Y81.389 E3.4309
G1 X83.734 Y80.606 E3.48593
G1 X83.538 Y80.655 E3.49601
G1 X82.995 Y81.065 E3.52996
G1 X81.578 Y80.647 E3.60366
G1 X80.961 Y81.215 E3.6455
G1 X79.919 Y80.965 E3.69897
G1 X79.789 Y81.078 E3.70756
G1 X79.753 Y81.24 E3.71584
G1 X80.488 Y82.169 E3.77494
G1 X80.655 Y82.975 E3.816
G1 X81.236 Y83.89 E3.87008
G1 X81.064 Y84.417 E3.89774
G1 X80.59 Y84.762 E3.92698
G1 X80.008 Y84.762 E3.95602
G1 X79.545 Y84.425 E3.98459
G1 X79.385 Y83.593 E4.02686
G1 X78.312 Y82.38 E4.10766
G1 X77.778 Y81.366 E4.16483
M205 X10 Y10
G1 F1500 E-1.83517
G1 F480 Z0.375
G0 F7200 X80.244 Y83.819 Z0.375
M205 X8 Y8
G1 F480 Z0.3
G1 F1500 E4.16483
G1 F1200 X80.333 Y83.96 E4.17315
G1 X80.271 Y83.962 E4.17624
G1 X80.244 Y83.819 E4.1835
M205 X10 Y10
G1 F1500 E-1.8165
G1 F480 Z0.375
G0 F7200 X80.315 Y125.238 Z0.375
M205 X8 Y8
G1 F480 Z0.3
G1 F1500 E4.1835
G1 F1200 X80.786 Y125.581 E4.21257
G1 X80.981 Y126.27 E4.2483
G1 X81.665 Y127.313 E4.31052
G1 X82.912 Y128.968 E4.41391
G1 X83.057 Y129.047 E4.42215
G1 X83.744 Y129.097 E4.45651
G1 X83.905 Y129.035 E4.46512
G1 X84.52 Y128.381 E4.50991
G1 X85.081 Y128.381 E4.53789
G1 X85.555 Y128.726 E4.56714
G1 X85.736 Y129.282 E4.59632
G1 X85.547 Y129.892 E4.62818
G1 X85.967 Y130.701 E4.67365
G1 X85.775 Y131.337 E4.7068
G1 X85.311 Y131.675 E4.73544
G1 X84.737 Y131.675 E4.76407
G1 X83.846 Y131.045 E4.81851
G1 X82.547 Y130.604 E4.88695
G1 X81.811 Y131.482 E4.94411
G1 X81.289 Y131.482 E4.97016
G1 X80.62 Y130.75 E5.01963
G1 X79.948 Y130.699 E5.05325
G1 X79.387 Y131.114 E5.08807
G1 X78.293 Y130.807 E5.14475
G1 X76.889 Y130.847 E5.21483
G1 X76.094 Y130.884 E5.25453
G1 X75.546 Y130.485 E5.28835
G1 X75.335 Y129.838 E5.32231
G1 X75.546 Y129.191 E5.35626
G1 X76.087 Y128.797 E5.38965
G1 X77.125 Y128.933 E5.44188
G1 X78.92 Y129.102 E5.53183
G1 X79.151 Y128.996 E5.54451
G1 X80.486 Y129.005 E5.61111
G1 X80.587 Y128.864 E5.61976
G1 X80.563 Y128.694 E5.62833
G1 X79.952 Y127.761 E5.68397
G1 X79.74 Y127.07 E5.72003
G1 X79.088 Y126.106 E5.77809
G1 X79.259 Y125.583 E5.80554
G1 X79.733 Y125.238 E5.83479
G1 X80.315 Y125.238 E5.86383
M205 X10 Y10
G0 F7200 X80.186 Y125.638
M205 X8 Y8
G1 F1200 X80.438 Y125.822 E5.87939
G1 X80.613 Y126.438 E5.91134
G1 X81.323 Y127.522 E5.97599
G1 X82.688 Y129.336 E6.08925
G1 X83.028 Y129.446 E6.10708
G1 X83.874 Y129.508 E6.1494
G1 X84.196 Y129.309 E6.16829
G1 X84.692 Y128.781 E6.20443
G1 X84.952 Y128.781 E6.2174
G1 X85.214 Y128.972 E6.23358
G1 X85.316 Y129.286 E6.25005
G1 X85.145 Y129.986 E6.286
G1 X85.537 Y130.741 E6.32844
G1 X85.431 Y131.093 E6.34678
G1 X85.181 Y131.275 E6.36221
G1 X84.865 Y131.275 E6.37797
G1 X84.03 Y130.685 E6.42898
G1 X82.663 Y130.22 E6.50102
G1 X82.272 Y130.309 E6.52102
G1 X81.624 Y131.082 E6.57135
G1 X81.465 Y131.082 E6.57928
G1 X80.808 Y130.363 E6.62787
G1 X79.89 Y130.294 E6.6738
G1 X79.307 Y130.676 E6.70857
G1 X78.341 Y130.405 E6.75863
G1 X76.87 Y130.448 E6.83205
G1 X76.216 Y130.478 E6.86471
G1 X75.887 Y130.239 E6.885
G1 X75.757 Y129.838 E6.90603
G1 X75.887 Y129.437 E6.92706
G1 X76.192 Y129.215 E6.94588
G1 X77.088 Y129.331 E6.99095
G1 X79.032 Y129.514 E7.08837
G1 X79.273 Y129.397 E7.10174
G1 X80.543 Y129.405 E7.1651
G1 X80.794 Y129.253 E7.17974
G1 X80.992 Y128.872 E7.20116
G1 X80.972 Y128.589 E7.21531
G1 X80.318 Y127.59 E7.27488
G1 X80.106 Y126.898 E7.31099
G1 X79.53 Y126.045 E7.36234
G1 X79.6 Y125.829 E7.37367
G1 X79.862 Y125.638 E7.38985
G1 X80.186 Y125.638 E7.40601
M205 X10 Y10
G0 F7200 X80.091 Y126.064
M205 X8 Y8
G1 F1200 X80.139 Y126.233 E7.41477
G1 X80.007 Y126.038 E7.42652
G1 X80.091 Y126.064 E7.43091
M205 X10 Y10
G0 F7200 X80.601 Y127.151
M205 X8 Y8
G1 F1200 X81.026 Y127.795 E7.4694
G1 X82.388 Y129.603 E7.58234
G1 X82.807 Y129.831 E7.60613
G1 X83.878 Y129.909 E7.65971
G1 X84.341 Y129.739 E7.68432
G1 X84.848 Y129.2 E7.72123
G1 X84.897 Y129.288 E7.72626
G1 X84.762 Y129.855 E7.75534
G1 X84.805 Y130.2 E7.77268
G1 X85.107 Y130.78 E7.80531
G1 X84.991 Y130.875 E7.81279
G1 X84.212 Y130.324 E7.86039
G1 X82.754 Y129.829 E7.93721
G1 X82.114 Y129.97 E7.9699
G1 X81.535 Y130.566 E8.01136
G1 X81.046 Y130.089 E8.04544
G1 X80.735 Y129.956 E8.06232
G1 X79.894 Y129.893 E8.10439
G1 X79.227 Y130.238 E8.14186
G1 X78.389 Y130.004 E8.18526
G1 X76.852 Y130.048 E8.26198
G1 X76.338 Y130.072 E8.28765
G1 X76.177 Y129.838 E8.30182
G1 X76.299 Y129.633 E8.31372
G1 X77.05 Y129.73 E8.3515
G1 X79.034 Y129.917 E8.45092
G1 X79.383 Y129.798 E8.46931
G1 X80.581 Y129.805 E8.52908
G1 X80.927 Y129.651 E8.54798
G1 X81.299 Y129.234 E8.57586
G1 X81.389 Y128.683 E8.60371
G1 X81.302 Y128.364 E8.62021
G1 X80.684 Y127.419 E8.67654
G1 X80.601 Y127.151 E8.69054
M205 X10 Y10
G1 F1500 E2.69054
G1 F480 Z0.375
G0 F7200 X81.689 Y129.338 Z0.375
M205 X8 Y8
G1 F480 Z0.3
G1 F1500 E8.69054
G1 F1200 X81.913 Y129.636 E8.70914
G1 X81.518 Y129.964 E8.73475
G1 X81.351 Y129.82 E8.74575
G1 X81.689 Y129.338 E8.77512
M205 X10 Y10
G1 F1500 E2.77512
G1 F480 Z0.375
;MESH:knopka_izmelch.3mf
G0 F7200 X94.075 Y103.401 Z0.375
M205 X8 Y8
;TYPE:WALL-INNER
G1 F480 Z0.3
G1 F1500 E8.77512
G1 F1200 X94.167 Y102.622 E8.81426
G1 X94.3 Y101.823 E8.85467
G1 X94.457 Y101.085 E8.89231
G1 X94.674 Y100.258 E8.93497
G1 X94.894 Y99.556 E8.97167
G1 X95.185 Y98.765 E9.01372
G1 X95.5 Y98.016 E9.05426
G1 X95.818 Y97.351 E9.09103
G1 X96.222 Y96.595 E9.1338
G1 X96.602 Y95.962 E9.17063
G1 X97.066 Y95.259 E9.21266
G1 X97.511 Y94.652 E9.2502
G1 X98.039 Y93.999 E9.2921
G1 X98.535 Y93.439 E9.32942
G1 X99.093 Y92.866 E9.36932
G1 X99.71 Y92.289 E9.41147
G1 X100.285 Y91.802 E9.44906
G1 X100.95 Y91.289 E9.49096
G1 X101.602 Y90.834 E9.53063
G1 X102.26 Y90.417 E9.5695
G1 X102.97 Y90.016 E9.61018
G1 X103.685 Y89.654 E9.65016
G1 X104.409 Y89.331 E9.68971
G1 X105.136 Y89.044 E9.72871
G1 X105.908 Y88.779 E9.76943
G1 X106.628 Y88.572 E9.8068
G1 X107.446 Y88.377 E9.84876
G1 X108.262 Y88.22 E9.89021
G1 X108.979 Y88.121 E9.92632
G1 X109.813 Y88.041 E9.96812
G1 X110.561 Y88.005 E10.00549
G1 X111.423 Y88.005 E10.04849
G1 X112.218 Y88.044 E10.0882
G1 X112.995 Y88.118 E10.12714
G1 X113.712 Y88.218 E10.16326
G1 X114.582 Y88.383 E10.20744
G1 X115.345 Y88.565 E10.24657
G1 X116.065 Y88.771 E10.28393
G1 X116.847 Y89.035 E10.32511
G1 X117.566 Y89.32 E10.3637
G1 X118.313 Y89.652 E10.40448
G1 X119.004 Y90.002 E10.44312
G1 X119.694 Y90.39 E10.48262
G1 X120.384 Y90.825 E10.52331
G1 X121.026 Y91.271 E10.56231
G1 X121.692 Y91.784 E10.60425
G1 X122.304 Y92.301 E10.64422
G1 X122.853 Y92.813 E10.68167
G1 X123.443 Y93.416 E10.72376
G1 X123.978 Y94.02 E10.76402
G1 X124.472 Y94.63 E10.80318
G1 X124.944 Y95.275 E10.84305
G1 X125.378 Y95.929 E10.88221
G1 X125.781 Y96.599 E10.92122
G1 X126.169 Y97.325 E10.96229
G1 X126.512 Y98.045 E11.00208
G1 X126.808 Y98.747 E11.04009
G1 X127.08 Y99.479 E11.07905
G1 X127.327 Y100.262 E11.12001
G1 X127.53 Y101.027 E11.15949
G1 X127.704 Y101.837 E11.20083
G1 X127.839 Y102.653 E11.24209
G1 X127.927 Y103.417 E11.28046
G1 X127.981 Y104.185 E11.31887
G1 X128.001 Y104.968 E11.35795
G1 X127.98 Y105.819 E11.40042
G1 X127.925 Y106.599 E11.43943
G1 X127.839 Y107.333 E11.4763
G1 X127.7 Y108.177 E11.51897
G1 X127.53 Y108.969 E11.55938
G1 X127.326 Y109.741 E11.59922
G1 X127.09 Y110.491 E11.63845
G1 X126.812 Y111.244 E11.67849
G1 X126.5 Y111.984 E11.71856
G1 X126.162 Y112.688 E11.75752
G1 X125.791 Y113.385 E11.79691
G1 X125.381 Y114.066 E11.83657
G1 X124.944 Y114.728 E11.87615
G1 X124.477 Y115.365 E11.91555
G1 X123.961 Y116.001 E11.95641
G1 X123.463 Y116.563 E11.99387
G1 X122.907 Y117.134 E12.03363
G1 X122.29 Y117.711 E12.07578
G1 X121.715 Y118.198 E12.11337
G1 X121.05 Y118.711 E12.15528
G1 X120.398 Y119.166 E12.19494
G1 X119.765 Y119.568 E12.23235
G1 X119.03 Y119.984 E12.27449
G1 X118.315 Y120.346 E12.31447
G1 X117.628 Y120.654 E12.35203
G1 X116.864 Y120.956 E12.39302
G1 X116.092 Y121.221 E12.43374
G1 X115.372 Y121.428 E12.47111
G1 X114.567 Y121.621 E12.51241
G1 X113.738 Y121.78 E12.55453
G1 X112.979 Y121.884 E12.59275
G1 X112.187 Y121.959 E12.63244
G1 X111.389 Y121.997 E12.67229
G1 X110.577 Y121.995 E12.71281
G1 X109.782 Y121.956 E12.75252
G1 X109.005 Y121.882 E12.79146
G1 X108.288 Y121.782 E12.82757
G1 X107.442 Y121.623 E12.87052
G1 X106.655 Y121.435 E12.91089
G1 X105.906 Y121.22 E12.94977
G1 X105.105 Y120.947 E12.99198
G1 X104.434 Y120.68 E13.02801
G1 X103.666 Y120.337 E13.06998
G1 X102.957 Y119.977 E13.10965
G1 X102.261 Y119.583 E13.14955
G1 X101.615 Y119.175 E13.18767
G1 X100.936 Y118.7 E13.22901
G1 X100.308 Y118.216 E13.26857
G1 X99.694 Y117.697 E13.30868
G1 X99.114 Y117.154 E13.34831
G1 X98.555 Y116.582 E13.38822
G1 X98.029 Y115.989 E13.42776
G1 X97.558 Y115.409 E13.46504
G1 X97.055 Y114.724 E13.50744
G1 X96.609 Y114.05 E13.54776
G1 X96.229 Y113.418 E13.58455
G1 X95.83 Y112.673 E13.62671
G1 X95.506 Y111.996 E13.66416
G1 X95.179 Y111.221 E13.70612
G1 X94.919 Y110.517 E13.74356
G1 X94.678 Y109.756 E13.78339
G1 X94.474 Y108.988 E13.82303
G1 X94.296 Y108.161 E13.86524
G1 X94.161 Y107.346 E13.90645
G1 X94.077 Y106.626 E13.94262
G1 X94.021 Y105.833 E13.98228
G1 X94 Y104.991 E14.0243
G1 X94.02 Y104.196 E14.06397
G1 X94.075 Y103.401 E14.10373
M205 X10 Y10
G1 F1500 E8.10373
G1 F480 Z0.375
G0 F7200 X97.851 Y115.134 Z0.375
M205 X8 Y8
G1 F480 Z0.3
G1 F1500 E14.10373
G1 F1200 X97.388 Y114.503 E14.14278
G1 X96.952 Y113.844 E14.1822
G1 X96.572 Y113.212 E14.21899
G1 X96.191 Y112.501 E14.25923
G1 X95.867 Y111.824 E14.29668
G1 X95.555 Y111.082 E14.33684
G1 X95.285 Y110.351 E14.37572
G1 X95.052 Y109.609 E14.41452
G1 X94.861 Y108.886 E14.45182
G1 X94.691 Y108.1 E14.49194
G1 X94.558 Y107.3 E14.5324
G1 X94.474 Y106.58 E14.56857
G1 X94.419 Y105.779 E14.60863
G1 X94.4 Y105 E14.6475
G1 X94.419 Y104.224 E14.68623
G1 X94.472 Y103.448 E14.72503
G1 X94.562 Y102.686 E14.76331
G1 X94.685 Y101.935 E14.80128
G1 X94.855 Y101.142 E14.84174
G1 X95.056 Y100.378 E14.88115
G1 X95.285 Y99.648 E14.91932
G1 X95.544 Y98.944 E14.95675
G1 X95.861 Y98.189 E14.9976
G1 X96.191 Y97.5 E15.03572
G1 X96.565 Y96.801 E15.07527
G1 X96.945 Y96.168 E15.1121
G1 X97.389 Y95.496 E15.15228
G1 X97.851 Y94.866 E15.19126
G1 X98.338 Y94.265 E15.22985
G1 X98.854 Y93.683 E15.26866
G1 X99.379 Y93.145 E15.30616
G1 X99.947 Y92.614 E15.34495
G1 X100.565 Y92.091 E15.38534
G1 X101.18 Y91.617 E15.42408
G1 X101.817 Y91.172 E15.46285
G1 X102.476 Y90.754 E15.50178
G1 X103.152 Y90.373 E15.5405
G1 X103.848 Y90.019 E15.57945
G1 X104.532 Y89.713 E15.61684
G1 X105.266 Y89.422 E15.65623
